src/next/cmd/sc_rowmenu.svg

<svg height="16" width="16" xmlns="http://www.w3.org/2000/svg" xmlns:xlink="http://www.w3.org/1999/xlink"><linearGradient id="a" gradientUnits="userSpaceOnUse" x1="102.30765" x2="106.01008" y1="39.141762" y2="209.45338"><stop offset="0" stop-color="#99999c"/><stop offset=".5" stop-color="#9c9ca1"/><stop offset="1" stop-color="#cdcdd1"/></linearGradient><linearGradient id="b" gradientUnits="userSpaceOnUse" x1="78.610847" x2="120.3435" y1="88.852417" y2="111.54715"><stop offset="0" stop-color="#fff"/><stop offset="1" stop-color="#ccc"/></linearGradient><linearGradient id="c" gradientUnits="userSpaceOnUse" x1="88.38102" x2="130.48599" y1="1008.9966" y2="1015.6953"><stop offset="0" stop-color="#7b7b7b"/><stop offset="1" stop-color="#797979" stop-opacity="0"/></linearGradient><clipPath id="d"><path d="m41.355614 933.74432h83.943996v117.52168h-83.943996z"/></clipPath><filter id="e" color-interpolation-filters="sRGB" height="1.073732" width="1.13754" x="-.06877" y="-.036866"><feGaussianBlur stdDeviation="1.0557314"/></filter><linearGradient id="f" gradientUnits="userSpaceOnUse" x1="98.40847" x2="115.25523" y1="30.758501" y2="77.140503"><stop offset="0" stop-color="#fff" stop-opacity=".683453"/><stop offset="1" stop-color="#fff" stop-opacity="0"/></linearGradient><linearGradient id="g" gradientTransform="matrix(.58291629 0 0 .66676377 62.177025 -566.68964)" gradientUnits="userSpaceOnUse" x1="63.011921" x2="63.011921" y1="945.89801" y2="1033.1569"><stop offset="0" stop-color="#545454" stop-opacity=".988"/><stop offset="1" stop-color="#ebebeb"/></linearGradient><linearGradient id="h" gradientTransform="matrix(.48045402 0 0 .66178602 128.73476 -578.51587)" gradientUnits="userSpaceOnUse" x1="-60.535713" x2="-60.357143" y1="979.50507" y2="1009.505"><stop offset="0" stop-color="#979797"/><stop offset=".148461" stop-color="#f6f6f6"/><stop offset=".28399727" stop-color="#e2e2e2"/><stop offset=".41198727" stop-color="#dedede"/><stop offset=".41198727" stop-color="#f6f6f6"/><stop offset="1" stop-color="#6b6b6b"/></linearGradient><linearGradient id="i" gradientTransform="matrix(.480454 0 0 .58309338 128.76683 499.76645)" gradientUnits="userSpaceOnUse" x1="-61.078979" x2="-60.6413" y1="-1056.658" y2="-1010.9131"><stop offset="0" stop-color="#777"/><stop offset=".18176934" stop-color="#a8a8a8"/><stop offset=".22864534" stop-color="#cdcdcd"/><stop offset=".34561315" stop-color="#f7f7f7"/><stop offset="1" stop-color="#fff"/></linearGradient><linearGradient id="j" gradientTransform="matrix(1.0769499 0 0 1.5652564 2.256411 -29.222398)" gradientUnits="userSpaceOnUse" x1="46.048" x2="46.048" y1="110.69923" y2="16.6203"><stop offset="0" stop-color="#c7cdd7"/><stop offset="1" stop-color="#fff"/></linearGradient><linearGradient id="k" gradientUnits="userSpaceOnUse" x1="67.266975" x2="67.266975" y1="144.02724" y2="-112.02084"><stop offset="0"/><stop offset="1" stop-color="#fff"/></linearGradient><linearGradient id="l" gradientTransform="matrix(1.1827218 0 0 .39131406 -1.307694 24.694402)" gradientUnits="userSpaceOnUse" x1="46.048" x2="46.048" y1="128.01709" y2="16.6203"><stop offset="0" stop-color="#f2fdeb"/><stop offset="1" stop-color="#c8ffa5"/></linearGradient><linearGradient id="m" gradientUnits="userSpaceOnUse" x1="67.266975" x2="67.266975" y1="144.02724" y2="-112.02084"><stop offset="0" stop-color="#5ca524"/><stop offset="1" stop-color="#58a11e" stop-opacity=".986274"/></linearGradient><linearGradient id="n" gradientUnits="userSpaceOnUse" x1="79.999992" x2="128.00005" y1="56" y2="56"><stop offset="0" stop-color="#fff"/><stop offset="1" stop-color="#fff" stop-opacity="0"/></linearGradient><mask id="o" maskUnits="userSpaceOnUse"><path d="m0 0h128.00005v112h-128.00005z" fill="url(#n)"/></mask><g mask="url(#o)" transform="scale(.125)"><path d="m0 0h127.99999v88h-127.99999z" fill="url(#j)"/><path d="m0 0v4 20 4 28 4 20 4 2.3125 1.6875h128v-64-24h-120zm5 8h30v16h-30zm35 0h27v16h-27zm32 0h56v16h-56zm-67 24h30v24h-30zm35 0h27v24h-27zm32 0h56v24h-56zm-67 32h30v16h-30zm35 0h27v16h-27zm32 0h56v16h-56zm-67 24h30zm35 0h27zm32 0h56z" fill="url(#k)"/><path d="m5 32h123v23.999998h-123z" fill="url(#l)"/><path d="m0 24v4 28 4 4h5 30 5 27 5 56v-8h-56v-24h56v-8h-56-5-27-5-30zm5 8h30v24h-30zm35 0h27v24h-27z" fill="url(#m)"/></g><g transform="matrix(.13504656 0 0 .13504656 -1.316297 -1.28596)"><path d="m68.985809 46.546616h59.012391v81.453444h-59.012391z" fill="url(#a)"/><path d="m76.390663 53.951469h44.429127v66.643681h-44.429127z" fill="url(#b)"/><path clip-path="url(#d)" d="m92.81509 1029.6319c1.071428 1.4286 10.71429 15.3572 11.78571 13.5715 1.07143-1.7858 26.42857-25.3572 25-26.7858-1.42857-1.4285-33.928567-41.78567-33.928567-41.78567z" fill="url(#c)" fill-rule="evenodd" filter="url(#e)" opacity=".68" transform="matrix(.69309305 0 0 .69309305 41.153912 -600.6251)"/><path d="m72 48v48c14.790777-17.220934 34.04067-23.231931 48-25.4375v-22.5625z" fill="url(#f)" fill-rule="evenodd" transform="matrix(.92560668 0 0 .92560668 9.746984 9.522348)"/><path d="m83.795517 65.058746h29.619413v48.131544h-29.619413z" fill="url(#g)"/><path d="m87.497948 68.761177h22.214562v40.726693h-22.214562z" fill="#535353"/><path d="m91.200371 72.4636h14.809709v14.809709h-14.809709z" fill="url(#h)"/><path d="m91.200371-116.89272h14.809719v29.619408h-14.809719z" fill="url(#i)" transform="scale(1 -1)"/></g></svg>

<?xml version="1.0" encoding="UTF-8" standalone="no"?>
<svg
   xmlns:dc="http://purl.org/dc/elements/1.1/"
   xmlns:cc="http://creativecommons.org/ns#"
   xmlns:rdf="http://www.w3.org/1999/02/22-rdf-syntax-ns#"
   xmlns:svg="http://www.w3.org/2000/svg"
   xmlns="http://www.w3.org/2000/svg"
   xmlns:sodipodi="http://sodipodi.sourceforge.net/DTD/sodipodi-0.dtd"
   xmlns:inkscape="http://www.inkscape.org/namespaces/inkscape"
   height="16"
   width="16"
   version="1.1"
   id="svg56"
   sodipodi:docname="sc_rowmenu.svg"
   inkscape:version="0.92.4 (unknown)"
   inkscape:export-filename="/home/rizmut/Dokumen/Rizmut/Github/libreoffice-style-karasa-jaga/build/next/cmd/sc_rowmenu.png"
   inkscape:export-xdpi="96"
   inkscape:export-ydpi="96">
  <metadata
     id="metadata62">
    <rdf:RDF>
      <cc:Work
         rdf:about="">
        <dc:format>image/svg+xml</dc:format>
        <dc:type
           rdf:resource="http://purl.org/dc/dcmitype/StillImage" />
        <dc:title></dc:title>
      </cc:Work>
    </rdf:RDF>
  </metadata>
  <defs
     id="defs60">
    <linearGradient
       id="b-3"
       gradientUnits="userSpaceOnUse"
       x1="102.30765"
       x2="106.01008"
       y1="39.141762"
       y2="209.45338">
      <stop
         offset="0"
         stop-color="#99999c"
         id="stop7-6" />
      <stop
         offset=".5"
         stop-color="#9c9ca1"
         id="stop9-7" />
      <stop
         offset="1"
         stop-color="#cdcdd1"
         id="stop11" />
    </linearGradient>
    <linearGradient
       id="c-5"
       gradientUnits="userSpaceOnUse"
       x1="78.610847"
       x2="120.3435"
       y1="88.852417"
       y2="111.54715">
      <stop
         offset="0"
         stop-color="#fff"
         id="stop14" />
      <stop
         offset="1"
         stop-color="#ccc"
         id="stop16" />
    </linearGradient>
    <linearGradient
       id="d-3"
       gradientUnits="userSpaceOnUse"
       x1="88.38102"
       x2="130.48599"
       y1="1008.9966"
       y2="1015.6953">
      <stop
         offset="0"
         stop-color="#7b7b7b"
         id="stop19" />
      <stop
         offset="1"
         stop-color="#797979"
         stop-opacity="0"
         id="stop21" />
    </linearGradient>
    <clipPath
       id="e-5">
      <path
         inkscape:connector-curvature="0"
         d="M 41.355614,933.74432 H 125.29961 V 1051.266 H 41.355614 Z"
         id="path24" />
    </clipPath>
    <filter
       style="color-interpolation-filters:sRGB"
       id="f-6"
       height="1.073732"
       width="1.13754"
       x="-0.068769999"
       y="-0.036866002">
      <feGaussianBlur
         stdDeviation="1.0557314"
         id="feGaussianBlur27" />
    </filter>
    <linearGradient
       id="g-2"
       gradientUnits="userSpaceOnUse"
       x1="98.40847"
       x2="115.25523"
       y1="30.758501"
       y2="77.140503">
      <stop
         offset="0"
         stop-color="#fff"
         stop-opacity=".683453"
         id="stop30-9" />
      <stop
         offset="1"
         stop-color="#fff"
         stop-opacity="0"
         id="stop32-1" />
    </linearGradient>
    <linearGradient
       id="h-2"
       gradientTransform="matrix(0.58291629,0,0,0.66676377,62.177025,-566.68964)"
       gradientUnits="userSpaceOnUse"
       x1="63.011921"
       x2="63.011921"
       y1="945.89801"
       y2="1033.1569">
      <stop
         offset="0"
         stop-color="#545454"
         stop-opacity=".988"
         id="stop35" />
      <stop
         offset="1"
         stop-color="#ebebeb"
         id="stop37" />
    </linearGradient>
    <linearGradient
       id="i"
       gradientTransform="matrix(0.48045402,0,0,0.66178602,128.73476,-578.51587)"
       gradientUnits="userSpaceOnUse"
       x1="-60.535713"
       x2="-60.357143"
       y1="979.50507"
       y2="1009.505">
      <stop
         offset="0"
         stop-color="#979797"
         id="stop40" />
      <stop
         offset=".148461"
         stop-color="#f6f6f6"
         id="stop42" />
      <stop
         offset=".28399727"
         stop-color="#e2e2e2"
         id="stop44" />
      <stop
         offset=".41198727"
         stop-color="#dedede"
         id="stop46" />
      <stop
         offset=".41198727"
         stop-color="#f6f6f6"
         id="stop48" />
      <stop
         offset="1"
         stop-color="#6b6b6b"
         id="stop50" />
    </linearGradient>
    <linearGradient
       id="j"
       gradientTransform="matrix(0.480454,0,0,0.58309338,128.76683,499.76645)"
       gradientUnits="userSpaceOnUse"
       x1="-61.078979"
       x2="-60.6413"
       y1="-1056.658"
       y2="-1010.9131">
      <stop
         offset="0"
         stop-color="#777"
         id="stop53" />
      <stop
         offset=".18176934"
         stop-color="#a8a8a8"
         id="stop55" />
      <stop
         offset=".22864534"
         stop-color="#cdcdcd"
         id="stop57" />
      <stop
         offset=".34561315"
         stop-color="#f7f7f7"
         id="stop59" />
      <stop
         offset="1"
         stop-color="#fff"
         id="stop61" />
    </linearGradient>
  </defs>
  <sodipodi:namedview
     pagecolor="#ffffff"
     bordercolor="#666666"
     borderopacity="1"
     objecttolerance="10"
     gridtolerance="10"
     guidetolerance="10"
     inkscape:pageopacity="0"
     inkscape:pageshadow="2"
     inkscape:window-width="1366"
     inkscape:window-height="714"
     id="namedview58"
     showgrid="false"
     inkscape:zoom="5.2149125"
     inkscape:cx="12.842527"
     inkscape:cy="24.692562"
     inkscape:window-x="0"
     inkscape:window-y="28"
     inkscape:window-maximized="1"
     inkscape:current-layer="svg56" />
  <linearGradient
     id="a"
     gradientTransform="matrix(1.0769499,0,0,1.5652564,2.256411,-29.222398)"
     gradientUnits="userSpaceOnUse"
     x1="46.048"
     x2="46.048"
     y1="110.69923"
     y2="16.6203">
    <stop
       offset="0"
       stop-color="#c7cdd7"
       id="stop2" />
    <stop
       offset="1"
       stop-color="#fff"
       id="stop4" />
  </linearGradient>
  <linearGradient
     id="b"
     gradientUnits="userSpaceOnUse"
     x1="67.266975"
     x2="67.266975"
     y1="144.02724"
     y2="-112.02084">
    <stop
       offset="0"
       id="stop7" />
    <stop
       offset="1"
       stop-color="#fff"
       id="stop9" />
  </linearGradient>
  <filter
     id="c"
     height="1.306617"
     width="1.43589"
     x="-0.21794499"
     y="-0.153309"
     style="color-interpolation-filters:sRGB">
    <feGaussianBlur
       stdDeviation="3.1542391"
       id="feGaussianBlur12" />
  </filter>
  <linearGradient
     id="d"
     gradientUnits="userSpaceOnUse"
     x1="32.81356"
     x2="28.745762"
     y1="44.474575"
     y2="19.254236">
    <stop
       offset="0"
       stop-color="#070707"
       id="stop15" />
    <stop
       offset="1"
       stop-color="#474747"
       id="stop17" />
  </linearGradient>
  <linearGradient
     id="e"
     gradientTransform="matrix(1.1827218,0,0,0.39131406,-1.307694,24.694402)"
     gradientUnits="userSpaceOnUse"
     x1="46.048"
     x2="46.048"
     y1="128.01709"
     y2="16.6203">
    <stop
       offset="0"
       stop-color="#f2fdeb"
       id="stop20" />
    <stop
       offset="1"
       stop-color="#c8ffa5"
       id="stop22" />
  </linearGradient>
  <linearGradient
     id="f"
     gradientUnits="userSpaceOnUse"
     x1="67.266975"
     x2="67.266975"
     y1="144.02724"
     y2="-112.02084">
    <stop
       offset="0"
       stop-color="#5ca524"
       id="stop25" />
    <stop
       offset="1"
       stop-color="#58a11e"
       stop-opacity=".986274"
       id="stop27" />
  </linearGradient>
  <linearGradient
     id="g"
     gradientUnits="userSpaceOnUse"
     x1="79.999992"
     x2="128.00005"
     y1="56"
     y2="56">
    <stop
       offset="0"
       stop-color="#fff"
       id="stop30" />
    <stop
       offset="1"
       stop-color="#fff"
       stop-opacity="0"
       id="stop32" />
  </linearGradient>
  <mask
     id="h"
     maskUnits="userSpaceOnUse">
    <path
       d="M 0,0 H 128.00005 V 112 H 0 Z"
       id="path35"
       inkscape:connector-curvature="0"
       style="fill:url(#g)" />
  </mask>
  <g
     id="g971">
    <g
       transform="scale(0.125)"
       id="g46"
       mask="url(#h)">
      <path
         inkscape:connector-curvature="0"
         style="fill:url(#a)"
         id="path38"
         d="M 0,0 H 127.99999 V 88 H 0 Z" />
      <path
         inkscape:connector-curvature="0"
         style="fill:url(#b)"
         id="path40"
         d="m 0,0 v 4 20 4 28 4 20 4 2.3125 V 88 H 128 V 24 0 H 8 Z M 5,8 H 35 V 24 H 5 Z M 40,8 H 67 V 24 H 40 Z m 32,0 h 56 V 24 H 72 Z M 5,32 H 35 V 56 H 5 Z m 35,0 H 67 V 56 H 40 Z m 32,0 h 56 V 56 H 72 Z M 5,64 H 35 V 80 H 5 Z m 35,0 H 67 V 80 H 40 Z m 32,0 h 56 V 80 H 72 Z M 5,88 h 30 z m 35,0 h 27 z m 32,0 h 56 z" />
      <path
         inkscape:connector-curvature="0"
         style="fill:url(#e)"
         id="path42"
         d="M 5,32 H 128 V 55.999998 H 5 Z" />
      <path
         inkscape:connector-curvature="0"
         style="fill:url(#f)"
         id="path44"
         d="m 0,24 v 4 28 4 4 h 5 30 5 27 5 56 V 56 H 72 V 32 h 56 V 24 H 72 67 40 35 5 Z m 5,8 H 35 V 56 H 5 Z m 35,0 H 67 V 56 H 40 Z" />
    </g>
    <g
       id="g86"
       transform="matrix(0.13504656,0,0,0.13504656,-1.316297,-1.2859604)">
      <path
         id="path70"
         d="M 68.985809,46.546616 H 127.9982 V 128.00006 H 68.985809 Z"
         inkscape:connector-curvature="0"
         style="fill:url(#b-3)" />
      <path
         id="path72"
         d="M 76.390663,53.951469 H 120.81979 V 120.59515 H 76.390663 Z"
         inkscape:connector-curvature="0"
         style="fill:url(#c-5)" />
      <path
         id="path74"
         transform="matrix(0.69309305,0,0,0.69309305,41.153912,-600.6251)"
         d="m 92.81509,1029.6319 c 1.071428,1.4286 10.71429,15.3572 11.78571,13.5715 1.07143,-1.7858 26.42857,-25.3572 25,-26.7858 -1.42857,-1.4285 -33.928567,-41.78567 -33.928567,-41.78567 z"
         clip-path="url(#e-5)"
         inkscape:connector-curvature="0"
         style="opacity:0.68000022;fill:url(#d-3);fill-rule:evenodd;filter:url(#f-6)" />
      <path
         id="path76"
         transform="matrix(0.92560668,0,0,0.92560668,9.746984,9.522348)"
         d="M 72,48 V 96 C 86.790777,78.779066 106.04067,72.768069 120,70.5625 V 48 Z"
         inkscape:connector-curvature="0"
         style="fill:url(#g-2);fill-rule:evenodd" />
      <path
         id="path78"
         d="M 83.795517,65.058746 H 113.41493 V 113.19029 H 83.795517 Z"
         inkscape:connector-curvature="0"
         style="fill:url(#h-2)" />
      <path
         id="path80"
         d="M 87.497948,68.761177 H 109.71251 V 109.48787 H 87.497948 Z"
         inkscape:connector-curvature="0"
         style="fill:#535353" />
      <path
         id="path82"
         d="M 91.200371,72.4636 H 106.01008 V 87.273309 H 91.200371 Z"
         inkscape:connector-curvature="0"
         style="fill:url(#i)" />
      <path
         id="path84"
         transform="scale(1,-1)"
         d="m 91.200371,-116.89272 h 14.809719 v 29.619408 H 91.200371 Z"
         inkscape:connector-curvature="0"
         style="fill:url(#j)" />
    </g>
  </g>
</svg>
